public/images/icons/bde/social-icons/tiktok.svg

<svg width="39" height="34" viewBox="0 0 39 34" fill="none" xmlns="http://www.w3.org/2000/svg">
<rect x="0.899902" y="0.5" width="37" height="33" rx="7.5" fill="black" stroke="white"/>
<path fill-rule="evenodd" clip-rule="evenodd" d="M29.4937 10.2545V14.1097C29.4937 14.1097 25.7419 13.9698 23.7683 12.3291V19.7222C23.7757 19.8188 23.7757 19.916 23.7757 20.014C23.7757 21.3957 23.3247 22.7464 22.48 23.8951C21.6353 25.044 20.4346 25.9394 19.0298 26.4681C17.625 26.997 16.0793 27.1353 14.5879 26.8658C13.0967 26.5963 11.7268 25.9308 10.6516 24.9538C9.57649 23.9769 8.84427 22.7321 8.5476 21.377C8.251 20.0219 8.40324 18.6172 8.9851 17.3406C9.56696 16.0642 10.5523 14.9731 11.8166 14.2056C13.0809 13.4378 14.5673 13.0283 16.0878 13.0283C16.4188 13.028 16.7496 13.0472 17.0779 13.0856V17.0616C16.3949 16.8726 15.6637 16.884 14.9883 17.0945C14.3129 17.3049 13.7277 17.7036 13.3161 18.2336C12.9044 18.7638 12.6872 19.3984 12.6953 20.047C12.7034 20.6959 12.9365 21.3258 13.3613 21.8472C13.7862 22.3686 14.3811 22.755 15.0616 22.9516C15.7421 23.1481 16.4734 23.1443 17.1515 22.9414C17.8297 22.7383 18.42 22.3461 18.8387 21.8205C19.2574 21.295 19.483 20.6628 19.4835 20.014V5H23.7697V5.03242C23.7697 5.46273 23.9481 10.0419 29.4937 10.2545Z" fill="black"/>
<path fill-rule="evenodd" clip-rule="evenodd" d="M31.4937 12.2545V16.1097C31.4937 16.1097 27.7419 15.9698 25.7683 14.3291V21.7222C25.7757 21.8188 25.7757 21.916 25.7757 22.014C25.7757 23.3957 25.3247 24.7464 24.48 25.8951C23.6353 27.044 22.4346 27.9394 21.0298 28.4681C19.625 28.997 18.0793 29.1353 16.5879 28.8658C15.0967 28.5963 13.7268 27.9308 12.6516 26.9538C11.5765 25.9769 10.8443 24.7321 10.5476 23.377C10.251 22.0219 10.4032 20.6172 10.9851 19.3406C11.567 18.0642 12.5523 16.9731 13.8166 16.2056C15.0809 15.4378 16.5673 15.0283 18.0878 15.0283C18.4188 15.028 18.7496 15.0472 19.0779 15.0856V19.0616C18.3949 18.8726 17.6637 18.884 16.9883 19.0945C16.3129 19.3049 15.7277 19.7036 15.3161 20.2336C14.9044 20.7638 14.6872 21.3984 14.6953 22.047C14.7034 22.6959 14.9365 23.3258 15.3613 23.8472C15.7862 24.3686 16.3811 24.755 17.0616 24.9516C17.7421 25.1481 18.4734 25.1443 19.1515 24.9414C19.8297 24.7383 20.42 24.3461 20.8387 23.8205C21.2574 23.295 21.483 22.6628 21.4835 22.014V7H25.7697V7.03242C25.7697 7.46273 25.9481 12.0419 31.4937 12.2545Z" fill="black"/>
<path fill-rule="evenodd" clip-rule="evenodd" d="M30.4937 11.2545V15.1097C30.4937 15.1097 26.7419 14.9698 24.7683 13.3291V20.7222C24.7757 20.8188 24.7757 20.916 24.7757 21.014C24.7757 22.3957 24.3247 23.7464 23.48 24.8951C22.6353 26.044 21.4346 26.9394 20.0298 27.4681C18.625 27.997 17.0793 28.1353 15.5879 27.8658C14.0967 27.5963 12.7268 26.9308 11.6516 25.9538C10.5765 24.9769 9.84427 23.7321 9.5476 22.377C9.251 21.0219 9.40324 19.6172 9.9851 18.3406C10.567 17.0642 11.5523 15.9731 12.8166 15.2056C14.0809 14.4378 15.5673 14.0283 17.0878 14.0283C17.4188 14.028 17.7496 14.0472 18.0779 14.0856V18.0616C17.3949 17.8726 16.6637 17.884 15.9883 18.0945C15.3129 18.3049 14.7277 18.7036 14.3161 19.2336C13.9044 19.7638 13.6872 20.3984 13.6953 21.047C13.7034 21.6959 13.9365 22.3258 14.3613 22.8472C14.7862 23.3686 15.3811 23.755 16.0616 23.9516C16.7421 24.1481 17.4734 24.1443 18.1515 23.9414C18.8297 23.7383 19.42 23.3461 19.8387 22.8205C20.2574 22.295 20.483 21.6628 20.4835 21.014V6H24.7697V6.03242C24.7697 6.46273 24.9481 11.0419 30.4937 11.2545Z" fill="white"/>
</svg>

<svg fill="none" viewBox="0 0 39 34"><rect width="37" height="33" x=".9" y=".5" fill="#000" stroke="#fff" rx="7.5"/><path fill="#000" fill-rule="evenodd" d="M29.494 10.255v3.855s-3.752-.14-5.726-1.78v7.392c.008.097.008.194.008.292a6.541 6.541 0 01-1.296 3.881c-.845 1.149-2.045 2.044-3.45 2.573a8.407 8.407 0 01-4.442.398c-1.491-.27-2.861-.935-3.936-1.912-1.076-.977-1.808-2.222-2.104-3.577a6.396 6.396 0 01.437-4.036c.582-1.277 1.567-2.368 2.832-3.135a8.246 8.246 0 014.27-1.178c.332 0 .663.02.99.058v3.976a3.718 3.718 0 00-2.089.032c-.675.21-1.26.61-1.672 1.14a2.893 2.893 0 00-.62 1.813c.007.649.24 1.279.665 1.8.425.522 1.02.908 1.7 1.105a3.72 3.72 0 002.09-.01 3.395 3.395 0 001.688-1.122 2.899 2.899 0 00.645-1.806V5h4.286v.032c0 .43.178 5.01 5.724 5.223z" clip-rule="evenodd"/><path fill="#000" fill-rule="evenodd" d="M31.494 12.255v3.855s-3.752-.14-5.726-1.78v7.392c.008.097.008.194.008.292a6.541 6.541 0 01-1.296 3.881c-.845 1.149-2.045 2.044-3.45 2.573a8.407 8.407 0 01-4.442.398c-1.491-.27-2.861-.935-3.936-1.912-1.075-.977-1.808-2.222-2.104-3.577a6.396 6.396 0 01.437-4.036c.582-1.277 1.567-2.368 2.832-3.135a8.246 8.246 0 014.27-1.178c.332 0 .663.02.99.058v3.976a3.718 3.718 0 00-2.089.032c-.675.21-1.26.61-1.672 1.14a2.893 2.893 0 00-.62 1.813c.007.649.24 1.279.665 1.8.425.522 1.02.908 1.7 1.105a3.72 3.72 0 002.09-.01 3.395 3.395 0 001.688-1.122 2.899 2.899 0 00.645-1.806V7h4.286v.032c0 .43.178 5.01 5.724 5.223z" clip-rule="evenodd"/><path fill="#fff" fill-rule="evenodd" d="M30.494 11.255v3.855s-3.752-.14-5.726-1.78v7.392c.008.097.008.194.008.292a6.541 6.541 0 01-1.296 3.881c-.845 1.149-2.045 2.044-3.45 2.573a8.407 8.407 0 01-4.442.398c-1.491-.27-2.861-.935-3.936-1.912-1.075-.977-1.808-2.222-2.104-3.577a6.396 6.396 0 01.437-4.036c.582-1.277 1.567-2.368 2.832-3.135a8.246 8.246 0 014.27-1.178c.332 0 .663.02.99.058v3.976a3.718 3.718 0 00-2.089.032c-.675.21-1.26.61-1.672 1.14a2.893 2.893 0 00-.62 1.813c.007.649.24 1.279.665 1.8.425.522 1.02.908 1.7 1.105a3.72 3.72 0 002.09-.01 3.395 3.395 0 001.688-1.122 2.899 2.899 0 00.645-1.806V6h4.286v.032c0 .43.178 5.01 5.724 5.223z" clip-rule="evenodd"/></svg>
